X: 2021
T: Loch Earn    Reel
%R: reel
B: Niel Gow & Sons "A Second Collection of Strathspey Reels, etc." v.2 p.2 #1
Z: 2022 John Chambers <jc:trillian.mit.edu>
M: C|
L: 1/8
K: G
% - - - - - - - - - -
V: 1 staves=2
d |\
[g2B2D2G,2]dB G2BG |E2AE FDDd | g2dB G2BG | EAFD G2G :| d | (ef).g.e (fg)ab | (Tgfg).e fddf |
(ef)ge (fg)ag | (Tfe)fd g2Bd || efge dBgB | ceBd .A(FTED) | GABG EGce | dBcA G2G |]
% - - - - - - - - - -
% Voice 2 preserves the staff layout in the book.
V: 2 clef=bass middle=d
z | g2g2 g2[g2B2] | c2^c2 d2d2 | g2g2 g2g2 | c2d2 g2G :| z | ^c'2c'2 d'2d'2 | a2a2 d'2d2 |
^c2c2 d2d2 | d2c2 B2G2 || c2c'2 b2g2 | f2g2 d2d2 | b2g2 c'2a2 | d'2d2 g2G |]


